svg/regular/bx-left-down-arrow-circle.svg

<svg xmlns="http://www.w3.org/2000/svg" width="24" height="24"><path d="M12.006 2.007A9.93 9.93 0 0 0 4.935 4.93c-3.898 3.898-3.898 10.242 0 14.142 1.885 1.885 4.396 2.923 7.071 2.923s5.187-1.038 7.071-2.923c3.898-3.899 3.898-10.243 0-14.142a9.931 9.931 0 0 0-7.071-2.923zm5.657 15.65c-1.507 1.507-3.516 2.337-5.657 2.337s-4.15-.83-5.657-2.337c-3.118-3.119-3.118-8.194 0-11.313 1.507-1.507 3.517-2.337 5.657-2.337s4.15.83 5.657 2.337c3.118 3.119 3.118 8.194 0 11.313z"/><path d="m14.346 8.247-3.215 3.215-2.125-2.125V15h5.663l-2.124-2.124 3.215-3.215z"/></svg>

<svg xmlns="http://www.w3.org/2000/svg" width="24" height="24" viewBox="0 0 24 24"><path d="M12.006,2.007c-2.675,0-5.187,1.038-7.071,2.923c-3.898,3.898-3.898,10.242,0,14.142c1.885,1.885,4.396,2.923,7.071,2.923 s5.187-1.038,7.071-2.923c3.898-3.899,3.898-10.243,0-14.142C17.192,3.045,14.681,2.007,12.006,2.007z M17.663,17.657 c-1.507,1.507-3.516,2.337-5.657,2.337s-4.15-0.83-5.657-2.337c-3.118-3.119-3.118-8.194,0-11.313 c1.507-1.507,3.517-2.337,5.657-2.337s4.15,0.83,5.657,2.337C20.781,9.463,20.781,14.538,17.663,17.657z"/><path d="M14.346 8.247L11.131 11.462 9.006 9.337 9.006 15 14.669 15 12.545 12.876 15.76 9.661z"/></svg>
